svg/300/sharp/detector_offline-fill.svg

<svg xmlns="http://www.w3.org/2000/svg" width="48" height="48" viewBox="0 -960 960 960"><path d="m376-140.001-31.615-31.615 104-104-104-104L376-411.231l104 104 104-104 31.615 31.615-104 104 104 104L584-140.001l-104-104-104 104Zm-80.385-519.23L319-589.23h322l23.385-70.001h-368.77Zm-10.23 115.385-38.384-115.385h-107v-160.768h679.998v160.768h-107l-42.846 115.385H285.385Z"/></svg>

<svg xmlns="http://www.w3.org/2000/svg" width="48" height="48" viewBox="0 -960 960 960"><path d="m376-140-31.61-31.62 104-104-104-104L376-411.23l104 104 104-104 31.61 31.61-104 104 104 104L584-140 480-244 376-140Zm-80.39-519.23 23.39 70h322l23.39-70H295.61Zm-10.22 115.38L247-659.23H140V-820h680v160.77H713l-42.85 115.38H285.39Z"/></svg>
